src/resources/icons/playlist-add.svg

<svg width="20" height="16" viewBox="0 0 20 16" fill="none" aria-hidden="true" xmlns="http://www.w3.org/2000/svg">
    <title>Add to playlist</title>
    <path
        d="M7 9H13M10 6V12M1 13V3C1 2.46957 1.21071 1.96086 1.58579 1.58579C1.96086 1.21071 2.46957 1 3 1H9L11 3H17C17.5304 3 18.0391 3.21071 18.4142 3.58579C18.7893 3.96086 19 4.46957 19 5V13C19 13.5304 18.7893 14.0391 18.4142 14.4142C18.0391 14.7893 17.5304 15 17 15H3C2.46957 15 1.96086 14.7893 1.58579 14.4142C1.21071 14.0391 1 13.5304 1 13Z"
        stroke="#00217D" stroke-width="2" stroke-linecap="round" stroke-linejoin="round"/>
</svg>

<svg width="20" height="16" fill="none" aria-hidden="true" xmlns="http://www.w3.org/2000/svg"><path d="M7 9h6m-3-3v6m-9 1V3a2 2 0 0 1 2-2h6l2 2h6a2 2 0 0 1 2 2v8a2 2 0 0 1-2 2H3a2 2 0 0 1-2-2Z" stroke="#00217D" stroke-width="2" stroke-linecap="round" stroke-linejoin="round"/></svg>
